!!!OTL: Die Reise nach J&uuml;tland (157a), S. 342f
!!!id: T0328
**kern
*clefG2
*k[]
*G:
{4g
=1
4g
4d
4b
=2
4b
4g}
=3
{8g
8a
=4
4.b
8a
8cc
8b
=5
4a}
4r
=6
{8a
8b
=7
4.cc
8cc
8dd
8ee
=8
4dd
4cc}
=9
{4b
=10
4cc
4b
4a
=11
4dd}
4r
=12
{8dd
8dd
=13
4.ee
8ee
8ee
8ee
=14
4dd
4cc}
=15
{4b
=16
4cc
4b
4a
=17
4g}
4r
==
*-
!!!minrhy: 8
!!!meters: 3/4 ]  ZZ[6
!!!cut: Die Reise nach J&uuml;tland (157a), S. 342f
!!!reg: Luxemburg
!!!trd: Singendes Volk, Esch-Alzette 1937, posth.
!!!rhy1: X_  X_X_X_  X_X_
!!!rhy2: XX  X_.XXX  X_0_
!!!key: T0328  08  G 3/4 ]  ZZ[6
!!!mod: SECHSTONSKALA DUR ?]  AMBITUS[9
!!!kad: 124541
!!!akz: 13_32_45_45_65_41_
!!!fot: 'a__b__bs"c__d__cw_
!!!for: 'a__b__b__a__b__a__
!!!fok: '^__^a_^a_/__\__\__
!! PHRAS[AUFTAKTIG]
!!!fkt: historische, Kriegs- und Soldatenlieder, Liebeslied
!!!bem1: Rodershausen, ? M. Clesen, 1930,
!!!bem2: mitgeteilt, hhh Josef Bour (Lehrer)
!! THILL, Mathias:
!! PR[17] 2K[8] 2G[4] 3K[8] 3G[8] 4A[8] 4Ü[0] 5A[0] 6K[0] 6G[0]
!! 7K[0] 7G[0] 8A[0] MEHR[0] SI[38] ABS[24] SR[13] SP[25]
!! ST[8] 2k[17] 2g[17] 3k[4] 3g[4] 4d[4] 4ü[0] 5d[0] 6k[0] 6g[0]
!! 7k[0] 7g[0] 8d[0] mehr[0] si[46] dm[-8] sr[33] sp[13]
!! 1F[30] 2F[63] 3F[0] 4F[0] LF[0] 2P[7] 3P[0] 4P[0] TRI[0] DF[3] AB[27]
!! TF[0] U3K[0] U3[0] U4[0] U4Ü[0] U5[4] U6K[0] U6[0] U7K[0] U7[4]
!! N1[24] N2K[0] N2[12] N3K[0] N3[32] N4[12] N4Ü[0] N5[12] N6K[0] N6[0]
!!!n7k: 0] N7[0] O1[0] O2K[0] O2[0] O3K[0] O3[0] HÖ[0
!!!RNB: symbol: &uuml;  = u umlaut (UTF-8: Ã¼)
